X:1
T:Title
%%score { 1 | 2 }
L:1/8
Q:1/4=100
M:4/4
K:G
V:1 treble nm="Grand Piano"
V:2 bass 
V:1
 [DB]>[CA] [B,G]>[B,D] E2 G2 | D4 [DB]>[CA] [B,G]>[CA] | [DB]2 [Dd]2 [DA]4 | %3
w: J.~M.~Driver * * * * *|||
 [DB]>[CA] [B,G]>[B,D] E2 G2 | D4 [DG]>[DG] A>A | B2 A2 [G,B,G]4 | %6
w: |||
 [G,EG]>[CEA] [CEG]>[G,CE] [G,B,D]2 [B,DG]2 | [DB]4 [^CB]>[CA] [CA]>[CA] | [^CB]2 [EA]2 [Dd]4 | %9
w: |||
 [DB]>[CA] [B,G]>[B,D] E2 G2 | D4 [DG]>[DG] A>A | B2 A2 [B,G]4 |] %12
w: |||
V:2
 [G,,G,]>[G,,G,] [G,,G,]>[G,,G,] [C,G,C]2 [E,G,C]2 | [G,B,]4 [G,,G,]>[G,,G,] [G,,G,]>[G,,G,] | %2
 [G,,G,]2 [B,,G,]2 [D,F,]4 | [G,,G,]>[G,,G,] [G,,G,]>[G,,G,] [C,G,C]2 [E,G,C]2 | %4
 [G,B,]4 [B,,G,]>[B,,G,] [D,F,D]>[D,F,D] | [G,D]2 [D,F,C]2 G,,4 | C,>C, C,>C, G,,2 G,,2 | %7
 [G,,G,]4 [A,,E,]>[A,,E,] [A,,A,]>[A,,A,] | [A,,E,]2 [^C,G,]2 [D,F,]4 | %9
 [G,,G,]>[G,,G,] [G,,G,]>[G,,G,] [C,G,C]2 [E,G,C]2 | [G,B,]4 [B,,G,]>[B,,G,] [D,F,D]>[D,F,D] | %11
 [G,D]2 [D,F,C]2 [G,,G,]4 |] %12

